resources/haticons/SVG/briefcase1.svg

<!-- Generated by IcoMoon.io -->
<svg version="1.1" xmlns="http://www.w3.org/2000/svg" width="24" height="24" viewBox="0 0 24 24">
<title>briefcase1</title>
<path d="M20.471 4.941h-3.388v-1.694c0-1.412-1.129-2.541-2.541-2.541h-4.941c-1.412 0-2.541 1.129-2.541 2.541v1.694h-3.531c-1.976 0-3.529 1.554-3.529 3.53v11.294c0 1.976 1.553 3.529 3.529 3.529h16.941c1.976 0 3.529-1.553 3.529-3.529v-11.294c0.001-1.976-1.552-3.53-3.528-3.53zM8.471 3.247c0-0.706 0.565-1.129 1.129-1.129h4.941c0.706 0 1.129 0.565 1.129 1.129v1.694h-7.2v-1.694zM3.529 6.353h16.941c1.129 0 2.118 0.988 2.118 2.118v3.529h-5.648v-0.706c0-0.423-0.282-0.706-0.706-0.706s-0.706 0.282-0.706 0.706v0.706h-7.058v-0.706c0-0.423-0.282-0.706-0.706-0.706s-0.706 0.282-0.706 0.706v0.706h-5.647v-3.529c0-1.129 0.988-2.118 2.118-2.118zM20.471 21.882h-16.942c-1.129 0-2.118-0.988-2.118-2.118v-6.353h5.647v0.706c0 0.423 0.282 0.706 0.706 0.706s0.706-0.282 0.706-0.706v-0.706h7.059v0.706c0 0.423 0.282 0.706 0.706 0.706s0.706-0.282 0.706-0.706v-0.706h5.647v6.353c0 1.13-0.988 2.118-2.118 2.118z"></path>
</svg>

<svg xmlns="http://www.w3.org/2000/svg" width="24" height="24"><path d="M20.471 4.941h-3.388V3.247A2.53 2.53 0 0 0 14.542.706H9.601A2.53 2.53 0 0 0 7.06 3.247v1.694H3.529A3.496 3.496 0 0 0 0 8.471v11.294a3.495 3.495 0 0 0 3.529 3.529H20.47a3.495 3.495 0 0 0 3.529-3.529V8.471a3.494 3.494 0 0 0-3.528-3.53zm-12-1.694c0-.706.565-1.129 1.129-1.129h4.941c.706 0 1.129.565 1.129 1.129v1.694h-7.2V3.247zM3.529 6.353H20.47c1.129 0 2.118.988 2.118 2.118V12H16.94v-.706c0-.423-.282-.706-.706-.706s-.706.282-.706.706V12H8.47v-.706c0-.423-.282-.706-.706-.706s-.706.282-.706.706V12H1.411V8.471c0-1.129.988-2.118 2.118-2.118zm16.942 15.529H3.529c-1.129 0-2.118-.988-2.118-2.118v-6.353h5.647v.706c0 .423.282.706.706.706s.706-.282.706-.706v-.706h7.059v.706c0 .423.282.706.706.706s.706-.282.706-.706v-.706h5.647v6.353c0 1.13-.988 2.118-2.118 2.118z"/></svg>
